src/assets/home/footer/i.svg

<svg width="40" height="40" viewBox="0 0 40 40" fill="none" xmlns="http://www.w3.org/2000/svg">
<path d="M40 20C40 8.9543 31.0457 -3.99656e-07 20 8.31668e-08C8.95431 5.65989e-07 -1.35705e-06 8.95431 -8.74228e-07 20C-3.91405e-07 31.0457 8.95431 40 20 40C31.0457 40 40 31.0457 40 20Z" fill="white"/>
<path d="M20.34 10.2282C23.6353 10.2282 24.0244 10.2408 25.33 10.2973C26.5351 10.3538 27.1879 10.5546 27.621 10.7241C28.1984 10.9501 28.6064 11.2137 29.0395 11.6468C29.4726 12.0799 29.7362 12.4878 29.9622 13.0653C30.1317 13.4984 30.3325 14.1512 30.389 15.3563C30.4455 16.6556 30.458 17.051 30.458 20.3463C30.458 23.6415 30.4455 24.0307 30.389 25.3363C30.3325 26.5414 30.1317 27.1942 29.9622 27.6272C29.7362 28.2047 29.4726 28.6127 29.0395 29.0458C28.6064 29.4789 28.1984 29.7425 27.621 29.9685C27.1879 30.1379 26.5351 30.3388 25.33 30.3953C24.0307 30.4518 23.6415 30.4643 20.34 30.4643C17.0447 30.4643 16.6556 30.4518 15.35 30.3953C14.1449 30.3388 13.4921 30.1379 13.059 29.9685C12.4816 29.7425 12.0736 29.4789 11.6405 29.0458C11.2074 28.6127 10.9438 28.2047 10.7178 27.6272C10.5484 27.1942 10.3475 26.5414 10.291 25.3363C10.2345 24.037 10.222 23.6415 10.222 20.3463C10.222 17.051 10.2345 16.6618 10.291 15.3563C10.3475 14.1512 10.5484 13.4984 10.7178 13.0653C10.9438 12.4878 11.2074 12.0799 11.6405 11.6468C12.0736 11.2137 12.4816 10.9501 13.059 10.7241C13.4921 10.5546 14.1449 10.3538 15.35 10.2973C16.6556 10.2408 17.0447 10.2282 20.34 10.2282ZM20.34 8C16.9882 8 16.5677 8.01256 15.2496 8.07532C13.9378 8.13809 13.0402 8.34522 12.2556 8.6465C11.4459 8.96033 10.7555 9.38088 10.0713 10.0713C9.38716 10.7555 8.96033 11.4459 8.6465 12.2556C8.33894 13.0402 8.13183 13.9378 8.07534 15.2496C8.01257 16.5677 8 16.9882 8 20.34C8 23.6918 8.01257 24.1123 8.07534 25.4304C8.1381 26.7422 8.34522 27.6398 8.6465 28.4244C8.96033 29.2341 9.38089 29.9245 10.0713 30.6087C10.7555 31.2928 11.4459 31.7197 12.2556 32.0335C13.0402 32.3411 13.9378 32.5482 15.2496 32.6047C16.5677 32.6674 16.9882 32.68 20.34 32.68C23.6918 32.68 24.1123 32.6674 25.4304 32.6047C26.7422 32.5419 27.6398 32.3348 28.4244 32.0335C29.2341 31.7197 29.9245 31.2991 30.6087 30.6087C31.2929 29.9245 31.7197 29.2341 32.0335 28.4244C32.3411 27.6398 32.5482 26.7422 32.6047 25.4304C32.6674 24.1123 32.68 23.6918 32.68 20.34C32.68 16.9882 32.6674 16.5677 32.6047 15.2496C32.5419 13.9378 32.3348 13.0402 32.0335 12.2556C31.7197 11.4459 31.2991 10.7555 30.6087 10.0713C29.9245 9.38715 29.2341 8.96033 28.4244 8.6465C27.6398 8.33894 26.7422 8.13181 25.4304 8.07532C24.1123 8.01883 23.6918 8 20.34 8Z" fill="#CB9F4C"/>
<path d="M20.3395 14.0078C16.8371 14.0078 14 16.8449 14 20.3473C14 23.8497 16.8371 26.6868 20.3395 26.6868C23.8419 26.6868 26.6789 23.8497 26.6789 20.3473C26.6789 16.8449 23.8419 14.0078 20.3395 14.0078ZM20.3395 24.4585C18.0673 24.4585 16.2282 22.6195 16.2282 20.3473C16.2282 18.0751 18.0673 16.236 20.3395 16.236C22.6116 16.236 24.4507 18.0751 24.4507 20.3473C24.457 22.6195 22.6116 24.4585 20.3395 24.4585Z" fill="#CB9F4C"/>
<path d="M28.4118 13.7547C28.4118 14.5707 27.7465 15.236 26.9305 15.236C26.1145 15.236 25.4492 14.5707 25.4492 13.7547C25.4492 12.9388 26.1145 12.2734 26.9305 12.2734C27.7465 12.2734 28.4118 12.9388 28.4118 13.7547Z" fill="#CB9F4C"/>
</svg>

<svg width="40" height="40" fill="none" xmlns="http://www.w3.org/2000/svg"><path d="M40 20C40 8.954 31.046 0 20 0S0 8.954 0 20s8.954 20 20 20 20-8.954 20-20Z" fill="#fff"/><path d="M20.34 10.228c3.295 0 3.684.013 4.99.07 1.205.056 1.858.257 2.291.426.577.226.985.49 1.419.923.433.433.696.84.922 1.418.17.433.37 1.086.427 2.291.056 1.3.069 1.695.069 4.99 0 3.296-.012 3.685-.069 4.99-.056 1.205-.257 1.858-.427 2.291a3.83 3.83 0 0 1-.922 1.419 3.83 3.83 0 0 1-1.419.922c-.433.17-1.086.37-2.291.427-1.3.057-1.688.07-4.99.07-3.295 0-3.684-.013-4.99-.07-1.205-.056-1.858-.257-2.291-.427a3.83 3.83 0 0 1-1.418-.922 3.83 3.83 0 0 1-.923-1.419c-.17-.433-.37-1.086-.427-2.29-.056-1.3-.069-1.695-.069-4.99 0-3.296.013-3.685.069-4.99.056-1.206.257-1.859.427-2.292a3.83 3.83 0 0 1 .922-1.418 3.83 3.83 0 0 1 1.419-.923c.433-.17 1.086-.37 2.291-.427 1.306-.056 1.695-.069 4.99-.069Zm0-2.228c-3.352 0-3.772.013-5.09.075-1.312.063-2.21.27-2.994.572-.81.313-1.5.734-2.185 1.424a6.053 6.053 0 0 0-1.425 2.185c-.307.784-.514 1.682-.57 2.994C8.012 16.568 8 16.988 8 20.34s.013 3.772.075 5.09c.063 1.312.27 2.21.572 2.994.313.81.734 1.5 1.424 2.185a6.053 6.053 0 0 0 2.185 1.424c.784.308 1.682.515 2.994.572 1.318.062 1.738.075 5.09.075s3.772-.013 5.09-.075c1.312-.063 2.21-.27 2.994-.572.81-.313 1.5-.734 2.185-1.424a6.051 6.051 0 0 0 1.424-2.185c.308-.784.515-1.682.572-2.994.062-1.318.075-1.738.075-5.09s-.013-3.772-.075-5.09c-.063-1.312-.27-2.21-.572-2.994a5.971 5.971 0 0 0-1.424-2.185 6.052 6.052 0 0 0-2.185-1.425c-.784-.307-1.682-.514-2.994-.57C24.112 8.018 23.692 8 20.34 8Z" fill="#CB9F4C"/><path d="M20.34 14.008a6.338 6.338 0 0 0-6.34 6.34 6.338 6.338 0 0 0 6.34 6.339 6.338 6.338 0 0 0 6.339-6.34 6.338 6.338 0 0 0-6.34-6.34Zm0 10.45a4.11 4.11 0 0 1-4.112-4.11 4.11 4.11 0 0 1 4.111-4.112 4.11 4.11 0 0 1 4.112 4.111 4.105 4.105 0 0 1-4.111 4.111ZM28.412 13.755c0 .816-.665 1.481-1.482 1.481a1.484 1.484 0 0 1-1.48-1.481c0-.816.665-1.482 1.48-1.482.817 0 1.482.666 1.482 1.482Z" fill="#CB9F4C"/></svg>
